X:1
T:Montreat, CM
T:Montreat, CM
T:Robert H. Groome  (1810-1889)
T:Public Domain Courtesy of the Cyber Hymnal™
C:Robert H. Groome  (1810-1889)
Z:Public Domain
Z:Courtesy of the Cyber Hymnal™
%%score ( 1 2 ) ( 3 4 )
L:1/8
Q:1/4=113
M:4/4
K:Bb
V:1 treble 
V:2 treble 
V:3 bass 
V:4 bass 
V:1
 [DF]3 [FB] [EA]2 [FB]2 | [Gc]2 [Fc]2 [Fd]4 | [Fd]3 [Af] [GB]2 [Cc]2 | [CA]2 [=EG]2 F4 | %4
 [DF]3 [DF] [EG]2 [EG]2 | [EA]2 [Ec]2 [DB]4 | [Fd]2 [_Af]2 [GB]2 [Gc]2 | [FA]4 [FB]4 |] %8
V:2
 x8 | x8 | x8 | x4 F4 | x8 | x8 | x8 | x8 |] %8
V:3
 [B,,B,]3 [B,,D] [C,C]2 [D,B,]2 | [E,B,]2 [F,A,]2 B,4 | B,3 [F,C] [G,B,]2 [=E,G,]2 | %3
 [F,A,]2 [C,B,]2 [F,A,]4 | [B,,B,]3 [B,,B,] [E,B,]2 B,2 | [C,C]2 [F,,F,A,]2 [B,,B,]4 | %6
 [B,,B,]2 [F,B,]2 [E,B,]2 [E,E]2 | [F,E]4 [B,,D]4 |] %8
V:4
 x8 | x4 B,4 | B,3 x5 | x8 | x6 (E,D,) | x8 | x8 | x8 |] %8

